src/pages/projects/mintcraft/assets/mintbit_pack.svg

<svg viewBox="0 0 2000 500" xmlns="http://www.w3.org/2000/svg" xml:space="preserve" style="fill-rule:evenodd;clip-rule:evenodd;stroke-linejoin:round;stroke-miterlimit:2"><g transform="scale(7.8125)"><path d="M0 0h64v64H0z"/><clipPath id="a"><path d="M0 0h64v64H0z"/></clipPath><g clip-path="url(#a)"><g opacity=".25"><path style="fill:#7f7f7f;fill-opacity:.5" d="M0 0h4v1H0z" transform="matrix(21.5 12.413 0 99.3042 -54 -18)"/><path style="fill:#7f7f7f;fill-opacity:.75" d="M0 0h4v1H0z" transform="matrix(21.5 -12.413 0 99.3042 32 31.652)"/><path style="fill:#7f7f7f" d="M0 0h4v1H0z" transform="matrix(21.5 -12.413 86 49.6521 -54 -17.652)"/></g><path d="M-42.306 33.857h11.147V45h3.715V19h-14.862v3.714h11.147v7.429h-11.147v-7.429h-3.715V45h3.715V33.857Z" style="fill:#d92;fill-rule:nonzero" transform="matrix(.53829 0 0 .53846 39.773 14.77)"/><path d="M-5.151 41.286V30.143h-3.715v-3.714h-11.147V19h-3.715v26h14.862v-3.714h-11.147V30.143h11.147v11.143h3.715Z" style="fill:#fb2;fill-rule:nonzero" transform="matrix(.53829 0 0 .53846 39.773 14.77)"/><path d="M2.28 45h11.147v-3.714h3.715v-3.715h-3.715v3.715H2.28V45Zm-3.715-14.857v11.143H2.28V30.143h-3.715Zm14.862 0v-3.714H2.28v3.714h11.147v3.714h3.715v-3.714h-3.715Z" style="fill:#eee;fill-rule:nonzero" transform="matrix(.53829 0 0 .53846 39.773 14.77)"/><path d="M64 0H0v64h64V0Zm-1.633 1.633v60.734H1.633V1.633h60.734Z" style="fill:url(#b)"/></g></g><g opacity=".25"><path style="fill:url(#c)" d="M0 0h4v1H0z" transform="matrix(187.5 108.2529 0 866.02498 500 -185.889)"/><path style="fill:url(#d)" d="M0 0h4v1H0z" transform="matrix(187.5 -108.2529 0 866.02498 1250 247.124)"/><path style="fill:url(#e)" d="M0 0h4v1H0z" transform="matrix(187.5 -108.2529 749.99998 433.01249 500 -185.889)"/></g><path d="M30.286 32v17h3.428V32h-3.428Z" style="fill:url(#f)" transform="matrix(7.41667 0 0 10.4706 512.667 -174.059)"/><path d="M30.286 32v17h3.428V32h-3.428Z" style="fill:#fb2" transform="matrix(0 -7.41667 10.4706 0 325.941 487.333)"/><path d="M-23.032 51.199V60h1.257v-6.286h1.258v-1.258h-1.258v-1.257h-1.257Zm5.029 2.515V60h1.257v-8.801h-1.257v1.257h-1.257v1.258h1.257Zm-1.257 2.514v-2.514h-1.257v2.514h1.257ZM-15.501 60h3.772v-1.257h-1.257v-5.029h-2.515v1.257h1.258v3.772h-1.258V60Zm2.515-8.801h-1.257v1.257h1.257v-1.257ZM-4.185 60v-5.029h-1.258V60h1.258Zm-5.029 0v-5.029h3.771v-1.258h-5.029V60h1.258Zm7.531-6.287v-2.514H-2.94v7.544h1.257L-1.696 60H.831v-1.257h-2.514v-3.772H.831v-1.258h-2.514Zm3.759-2.514V60h5.029v-1.257H3.334v-2.515h3.771v-1.257H3.334v-2.515h3.771v-1.257H2.076Zm6.287 7.544v-2.515H7.105v2.515h1.258Zm0-3.772v-2.515H7.105v2.515h1.258ZM9.62 60h3.772v-1.257h-1.257v-5.029H9.62v1.257h1.257v3.772H9.62V60Zm2.515-8.801h-1.258v1.257h1.258v-1.257Zm3.772 2.514v-2.514h-1.258v7.544h1.258L15.894 60h2.527v-1.257h-2.514v-3.772h2.514v-1.258h-2.514Z" style="fill:#eee;fill-rule:nonzero" transform="matrix(20.2435 0 0 20.2248 1356.1 -874.486)"/><defs><linearGradient id="b" x1="0" y1="0" x2="1" y2="0" gradientUnits="userSpaceOnUse" gradientTransform="matrix(64 64 -64 64 0 0)"><stop offset="0" style="stop-color:#eee;stop-opacity:.11"/><stop offset="1" style="stop-color:#111;stop-opacity:0"/></linearGradient><linearGradient id="c" x1="0" y1="0" x2="1" y2="0" gradientUnits="userSpaceOnUse" gradientTransform="matrix(0 .57735 -2.66667 .33333 4 -.285)"><stop offset="0" style="stop-color:#7f7f7f;stop-opacity:.5"/><stop offset="1" style="stop-color:#7f7f7f;stop-opacity:0"/></linearGradient><linearGradient id="d" x1="0" y1="0" x2="1" y2="0" gradientUnits="userSpaceOnUse" gradientTransform="matrix(0 .57735 -2.66667 -.33333 0 -.285)"><stop offset="0" style="stop-color:#7f7f7f;stop-opacity:.75"/><stop offset="1" style="stop-color:#7f7f7f;stop-opacity:0"/></linearGradient><linearGradient id="e" x1="0" y1="0" x2="1" y2="0" gradientUnits="userSpaceOnUse" gradientTransform="matrix(-2.3094 .57735 -1.33333 -.33333 1.141 .715)"><stop offset="0" style="stop-color:#7f7f7f;stop-opacity:1"/><stop offset="1" style="stop-color:#7f7f7f;stop-opacity:0"/></linearGradient><linearGradient id="f" x1="0" y1="0" x2="1" y2="0" gradientUnits="userSpaceOnUse" gradientTransform="matrix(0 -17 24 0 32 49)"><stop offset="0" style="stop-color:#d92;stop-opacity:1"/><stop offset="1" style="stop-color:#960;stop-opacity:1"/></linearGradient></defs></svg>

<?xml version="1.0" encoding="UTF-8" standalone="no"?>
<!DOCTYPE svg PUBLIC "-//W3C//DTD SVG 1.1//EN" "http://www.w3.org/Graphics/SVG/1.1/DTD/svg11.dtd">
<svg width="100%" height="100%" viewBox="0 0 2000 500" version="1.1" xmlns="http://www.w3.org/2000/svg" xmlns:xlink="http://www.w3.org/1999/xlink" xml:space="preserve" xmlns:serif="http://www.serif.com/" style="fill-rule:evenodd;clip-rule:evenodd;stroke-linejoin:round;stroke-miterlimit:2;">
    <g transform="matrix(7.8125,0,0,7.8125,0,0)">
        <rect x="0" y="0" width="64" height="64"/>
        <clipPath id="_clip1">
            <rect x="0" y="0" width="64" height="64"/>
        </clipPath>
        <g clip-path="url(#_clip1)">
            <g opacity="0.25">
                <g transform="matrix(21.5,12.413,4.26996e-15,99.3042,-54,-18)">
                    <rect x="0" y="0" width="4" height="1" style="fill:rgb(127,127,127);fill-opacity:0.5;"/>
                </g>
                <g transform="matrix(21.5,-12.413,-4.26996e-15,99.3042,32,31.6521)">
                    <rect x="0" y="0" width="4" height="1" style="fill:rgb(127,127,127);fill-opacity:0.75;"/>
                </g>
                <g transform="matrix(21.5,-12.413,86,49.6521,-54,-17.6521)">
                    <rect x="0" y="0" width="4" height="1" style="fill:rgb(127,127,127);"/>
                </g>
            </g>
            <g transform="matrix(0.538285,0,0,0.538462,39.7726,14.7692)">
                <path d="M-42.306,33.857L-31.159,33.857L-31.159,45L-27.444,45L-27.444,19L-42.306,19L-42.306,22.714L-31.159,22.714L-31.159,30.143L-42.306,30.143L-42.306,22.714L-46.021,22.714L-46.021,45L-42.306,45L-42.306,33.857Z" style="fill:rgb(221,153,34);fill-rule:nonzero;"/>
                <path d="M-5.151,41.286L-5.151,30.143L-8.866,30.143L-8.866,26.429L-20.013,26.429L-20.013,19L-23.728,19L-23.728,45L-8.866,45L-8.866,41.286L-20.013,41.286L-20.013,30.143L-8.866,30.143L-8.866,41.286L-5.151,41.286Z" style="fill:rgb(255,187,34);fill-rule:nonzero;"/>
                <path d="M2.28,45L13.427,45L13.427,41.286L17.142,41.286L17.142,37.571L13.427,37.571L13.427,41.286L2.28,41.286L2.28,45ZM-1.435,30.143L-1.435,41.286L2.28,41.286L2.28,30.143L-1.435,30.143ZM13.427,30.143L13.427,26.429L2.28,26.429L2.28,30.143L13.427,30.143L13.427,33.857L17.142,33.857L17.142,30.143L13.427,30.143Z" style="fill:rgb(238,238,238);fill-rule:nonzero;"/>
            </g>
            <path d="M64,0L0,0L0,64L64,64L64,0ZM62.367,1.633L62.367,62.367L1.633,62.367L1.633,1.633L62.367,1.633Z" style="fill:url(#_Linear2);"/>
        </g>
    </g>
    <g transform="matrix(8.72093,0,0,8.72093,970.93,-28.9118)">
        <g opacity="0.25">
            <g transform="matrix(21.5,12.413,4.26996e-15,99.3042,-54,-18)">
                <rect x="0" y="0" width="4" height="1" style="fill:url(#_Linear3);"/>
            </g>
            <g transform="matrix(21.5,-12.413,-4.26996e-15,99.3042,32,31.6521)">
                <rect x="0" y="0" width="4" height="1" style="fill:url(#_Linear4);"/>
            </g>
            <g transform="matrix(21.5,-12.413,86,49.6521,-54,-18)">
                <rect x="0" y="0" width="4" height="1" style="fill:url(#_Linear5);"/>
            </g>
        </g>
    </g>
    <g transform="matrix(7.41667,0,0,10.4706,512.667,-174.059)">
        <path d="M30.286,32L30.286,49L33.714,49L33.714,32L30.286,32Z" style="fill:url(#_Linear6);"/>
    </g>
    <g transform="matrix(4.5414e-16,-7.41667,10.4706,6.41139e-16,325.941,487.333)">
        <path d="M30.286,32L30.286,49L33.714,49L33.714,32L30.286,32Z" style="fill:rgb(255,187,34);"/>
    </g>
    <g transform="matrix(20.2435,0,0,20.2248,1356.1,-874.486)">
        <path d="M-23.032,51.199L-23.032,60L-21.775,60L-21.775,53.714L-20.517,53.714L-20.517,52.456L-21.775,52.456L-21.775,51.199L-23.032,51.199ZM-18.003,53.714L-18.003,60L-16.746,60L-16.746,51.199L-18.003,51.199L-18.003,52.456L-19.26,52.456L-19.26,53.714L-18.003,53.714ZM-19.26,56.228L-19.26,53.714L-20.517,53.714L-20.517,56.228L-19.26,56.228Z" style="fill:rgb(238,238,238);fill-rule:nonzero;"/>
        <path d="M-15.501,60L-11.729,60L-11.729,58.743L-12.986,58.743L-12.986,53.714L-15.501,53.714L-15.501,54.971L-14.243,54.971L-14.243,58.743L-15.501,58.743L-15.501,60ZM-12.986,51.199L-14.243,51.199L-14.243,52.456L-12.986,52.456L-12.986,51.199Z" style="fill:rgb(238,238,238);fill-rule:nonzero;"/>
        <path d="M-4.185,60L-4.185,54.971L-5.443,54.971L-5.443,60L-4.185,60ZM-9.214,60L-9.214,54.971L-5.443,54.971L-5.443,53.713L-10.472,53.713L-10.472,60L-9.214,60Z" style="fill:rgb(238,238,238);fill-rule:nonzero;"/>
        <path d="M-1.683,53.713L-1.683,51.199L-2.94,51.199L-2.94,58.743L-1.683,58.743L-1.696,60L0.831,60L0.831,58.743L-1.683,58.743L-1.683,54.971L0.831,54.971L0.831,53.713L-1.683,53.713Z" style="fill:rgb(238,238,238);fill-rule:nonzero;"/>
        <path d="M2.076,51.199L2.076,60L7.105,60L7.105,58.743L3.334,58.743L3.334,56.228L7.105,56.228L7.105,54.971L3.334,54.971L3.334,52.456L7.105,52.456L7.105,51.199L2.076,51.199ZM8.363,58.743L8.363,56.228L7.105,56.228L7.105,58.743L8.363,58.743ZM8.363,54.971L8.363,52.456L7.105,52.456L7.105,54.971L8.363,54.971Z" style="fill:rgb(238,238,238);fill-rule:nonzero;"/>
        <path d="M9.62,60L13.392,60L13.392,58.743L12.135,58.743L12.135,53.714L9.62,53.714L9.62,54.971L10.877,54.971L10.877,58.743L9.62,58.743L9.62,60ZM12.135,51.199L10.877,51.199L10.877,52.456L12.135,52.456L12.135,51.199Z" style="fill:rgb(238,238,238);fill-rule:nonzero;"/>
        <path d="M15.907,53.713L15.907,51.199L14.649,51.199L14.649,58.743L15.907,58.743L15.894,60L18.421,60L18.421,58.743L15.907,58.743L15.907,54.971L18.421,54.971L18.421,53.713L15.907,53.713Z" style="fill:rgb(238,238,238);fill-rule:nonzero;"/>
    </g>
    <defs>
        <linearGradient id="_Linear2" x1="0" y1="0" x2="1" y2="0" gradientUnits="userSpaceOnUse" gradientTransform="matrix(64,64,-64,64,0,0)"><stop offset="0" style="stop-color:rgb(238,238,238);stop-opacity:0.11"/><stop offset="1" style="stop-color:rgb(17,17,17);stop-opacity:0"/></linearGradient>
        <linearGradient id="_Linear3" x1="0" y1="0" x2="1" y2="0" gradientUnits="userSpaceOnUse" gradientTransform="matrix(4.86228e-17,0.577351,-2.66667,0.333333,4,-0.285353)"><stop offset="0" style="stop-color:rgb(127,127,127);stop-opacity:0.5"/><stop offset="1" style="stop-color:rgb(127,127,127);stop-opacity:0"/></linearGradient>
        <linearGradient id="_Linear4" x1="0" y1="0" x2="1" y2="0" gradientUnits="userSpaceOnUse" gradientTransform="matrix(2.7795e-16,0.577351,-2.66667,-0.333333,0,-0.285354)"><stop offset="0" style="stop-color:rgb(127,127,127);stop-opacity:0.75"/><stop offset="1" style="stop-color:rgb(127,127,127);stop-opacity:0"/></linearGradient>
        <linearGradient id="_Linear5" x1="0" y1="0" x2="1" y2="0" gradientUnits="userSpaceOnUse" gradientTransform="matrix(-2.3094,0.577351,-1.33333,-0.333333,1.14142,0.714646)"><stop offset="0" style="stop-color:rgb(127,127,127);stop-opacity:1"/><stop offset="1" style="stop-color:rgb(127,127,127);stop-opacity:0"/></linearGradient>
        <linearGradient id="_Linear6" x1="0" y1="0" x2="1" y2="0" gradientUnits="userSpaceOnUse" gradientTransform="matrix(1.46958e-15,-17,24,1.04095e-15,32,49)"><stop offset="0" style="stop-color:rgb(221,153,34);stop-opacity:1"/><stop offset="1" style="stop-color:rgb(153,102,0);stop-opacity:1"/></linearGradient>
    </defs>
</svg>
